X: 18086
T: Humours Of Ballycullen, The
R: polka
M: 2/4
K: Edorian
|:BE EB|FF E2|BB Ec|d2 c2|
BE EG|FG EA|FA DA|d2 c2:|
Be ed/e/|fe ed|Be ef|d2 BA|
Be ed/e/|fe ed|BA dA|e2 BA|
Be ed/e/|fe ed|Be ef|d2 de|
fg/f/ ef/e/|dc Bd|Ac FA|E2 dc||

